X:209
T:Mother's Delight (reel) 
B:CRE2.120 (Aoibhneas na Mathar) 
F:file ID: cre.2/209moth_d
M:C
R:reel
Q:180
K:Dm
E|F2FE F2DE|FEFA GECE|Add2 defe|decd A=BcA|
d2dc AGA=B|c=BcG ECCE|Add2 AGA=B|cAGE FDD:|
E|FAdA FDD/C/D|EGcG ECCE|FAdA FDD/C/D|E2CE D3E|
FAdA FDD/C/D|EGcG ECCE|FAdA FDD/C/D|E2CE D3:|


%%%

